T: Sondheim's Frolics
M: 6/8
L: 1/8
K: Amaj
|: cde age | ~c3 cBA | ~d3 def | eAc Bc/B/A |
cde age | ~c3 cBA | FAc BAG |1 ~A3 A2B :|2 ~A3 A2E ||
|: FAe fga | ~e3 ecA | ~d3 def | eAc Bc/B/A |
FAe fga | ~e3 ecA | cBA B=cB | ~A3 A2E |
FAe fga | ~e3 ecA  | ~d3 def | eAc Bce |
fdf ~g3 | aed cBA | FAc BAG | ~A3 A2B ||
